src/assets/MailIllustration.svg

<svg width="124" height="55" viewBox="0 0 124 55" fill="none" xmlns="http://www.w3.org/2000/svg">
<path d="M10.1989 17.5H55.5" stroke="#F8FAFC" stroke-width="3" stroke-linecap="round"/>
<path d="M20 27.5H50.3613" stroke="#F8FAFC" stroke-width="3" stroke-linecap="round"/>
<path d="M1.96385 37.5H46.3011" stroke="#F8FAFC" stroke-width="3" stroke-linecap="round"/>
<path d="M106.417 54.719L58.7882 35.7357C57.8123 35.344 57.0327 34.5856 56.6199 33.6263C56.2071 32.6671 56.1947 31.5851 56.5853 30.6168L68.0162 2.49684C68.4118 1.53059 69.1776 0.758717 70.1462 0.34996C71.1149 -0.0587963 72.2076 -0.0711874 73.1854 0.315498L120.814 19.2987C121.79 19.6904 122.569 20.4487 122.982 21.4077C123.395 22.3668 123.407 23.4487 123.017 24.417L111.586 52.5373C111.19 53.5034 110.425 54.2752 109.456 54.684C108.487 55.0928 107.395 55.1054 106.417 54.719ZM72.3825 2.29377C71.9342 2.11673 71.4335 2.12254 70.9895 2.30994C70.5456 2.49734 70.1946 2.85109 70.0133 3.29391L58.5831 31.4119C58.4043 31.8558 58.4102 32.3517 58.5995 32.7914C58.7887 33.231 59.146 33.5786 59.5932 33.7582L107.218 52.7401C107.667 52.9174 108.168 52.9117 108.612 52.7242C109.056 52.5368 109.408 52.1829 109.589 51.7399L121.019 23.6222C121.198 23.1783 121.192 22.6824 121.003 22.2428C120.813 21.8032 120.456 21.4557 120.009 21.2762L72.3825 2.29377Z" fill="#8C85DC"/>
<path d="M106.699 36.8256L106.697 36.8245L69.9306 22.1707C69.418 21.965 68.9819 21.6079 68.6814 21.1481C68.381 20.6883 68.2308 20.1481 68.2514 19.6008L68.9454 2.5498C68.9627 2.1249 69.0828 1.71033 69.2956 1.34092C69.5083 0.971512 69.8075 0.65806 70.1679 0.426894C70.5284 0.195729 70.9397 0.0536054 71.3671 0.0124651C71.7946 -0.0286752 72.2257 0.0323652 72.6244 0.190466L121.281 19.4885C121.939 19.7496 122.465 20.2577 122.746 20.9018C123.027 21.546 123.039 22.274 122.78 22.9269L122.939 23.0851L121.414 24.5898L121.413 24.5893L109.593 36.2431C109.221 36.6105 108.749 36.8616 108.234 36.9651C107.72 37.0687 107.186 37.0202 106.699 36.8256Z" fill="#8C85DC"/>
<path d="M79.0907 38.0666L62.7389 31.5492C62.3363 31.3885 62.0146 31.076 61.8445 30.6805C61.6745 30.2849 61.67 29.8387 61.8321 29.4399C61.9943 29.0411 62.3097 28.7223 62.709 28.5537C63.1084 28.3851 63.5591 28.3805 63.9619 28.5408L80.3137 35.0581C80.7164 35.2189 81.0381 35.5313 81.2082 35.9269C81.3782 36.3225 81.3826 36.7687 81.2205 37.1675C81.0584 37.5663 80.743 37.885 80.3436 38.0536C79.9443 38.2222 79.4936 38.2269 79.0907 38.0666Z" fill="#8C85DC"/>
<path d="M89.2145 32.6707C91.4252 32.6707 93.2173 30.8962 93.2173 28.7072C93.2173 26.5182 91.4252 24.7437 89.2145 24.7437C87.0039 24.7437 85.2117 26.5182 85.2117 28.7072C85.2117 30.8962 87.0039 32.6707 89.2145 32.6707Z" fill="#F8FAFC"/>
</svg>

<svg xmlns="http://www.w3.org/2000/svg" width="124" height="55" fill="none">
  <path stroke="#F8FAFC" stroke-linecap="round" stroke-width="3" d="M10.199 17.5H55.5M20 27.5h30.361M1.964 37.5H46.3"/>
  <path fill="#8C85DC" d="M106.417 54.719 58.788 35.736a3.965 3.965 0 0 1-2.168-2.11 3.909 3.909 0 0 1-.035-3.01l11.431-28.12A3.963 3.963 0 0 1 70.146.35a4.02 4.02 0 0 1 3.04-.035L120.813 19.3a3.965 3.965 0 0 1 2.168 2.109 3.91 3.91 0 0 1 .035 3.009l-11.431 28.12a3.964 3.964 0 0 1-2.13 2.147 4.02 4.02 0 0 1-3.039.035ZM72.382 2.294a1.843 1.843 0 0 0-1.392.016 1.817 1.817 0 0 0-.977.984l-11.43 28.118c-.179.444-.173.94.017 1.38.189.439.546.787.993.966l47.625 18.982c.449.177.95.172 1.394-.016.444-.187.796-.541.977-.984l11.43-28.118c.179-.444.173-.94-.016-1.38a1.821 1.821 0 0 0-.994-.966L72.382 2.294Z"/>
  <path fill="#8C85DC" d="m106.699 36.826-.002-.002-36.766-14.653a2.687 2.687 0 0 1-1.25-1.023c-.3-.46-.45-1-.43-1.547l.694-17.051c.018-.425.138-.84.35-1.21A2.701 2.701 0 0 1 72.625.19l48.657 19.298c.658.262 1.184.77 1.465 1.414.281.644.293 1.372.034 2.025l.159.158-1.525 1.505h-.001l-11.82 11.653a2.7 2.7 0 0 1-2.894.583ZM79.09 38.067 62.74 31.549a1.63 1.63 0 0 1-.895-.869 1.607 1.607 0 0 1-.012-1.24 1.63 1.63 0 0 1 .877-.886c.4-.169.85-.173 1.253-.013l16.352 6.517c.402.16.724.473.894.869.17.395.175.842.013 1.24a1.629 1.629 0 0 1-.877.887c-.4.168-.85.173-1.253.013Z"/>
  <path fill="#F8FAFC" d="M89.215 32.67c2.21 0 4.002-1.774 4.002-3.963s-1.792-3.963-4.002-3.963c-2.211 0-4.003 1.774-4.003 3.963 0 2.19 1.792 3.964 4.002 3.964Z"/>
</svg>
